X:457
T: ES STEHT EIN LIND IN JENEM THAL
N: E0406
O: Europa, Mitteleuropa, Deutschland
R: Liebes - Lied
M: 4/4
L: 1/8
K: G
D2 | G2G2G2A2 | F2E2D2
G2 | F2D2E2E2 | D4z2
D2 | G2G2d3c | B4A4 | GABAG2FE | F2
D2E2F2 | G3AB2A2 | G6
D2 | G2G2d3c | B4A4 | GABAG2FE | F2
D2E2F2 | G3AB2A2 | G6

